svgs/sharp-regular/messages-question.svg

<svg xmlns="http://www.w3.org/2000/svg" viewBox="0 0 640 512"><!--! Font Awesome Pro 6.6.0 by @fontawesome - https://fontawesome.com License - https://fontawesome.com/license (Commercial License) Copyright 2024 Fonticons, Inc. --><path d="M144 360L96 384l0-16 0-37.7L96 320l-48 0L0 320l0-48L0 48 0 0 48 0 368 0l48 0 0 48 0 224 0 48-48 0-144 0-80 40zm0-53.7l58.5-29.3 10.1-5.1 11.3 0 144 0 0-224L48 48l0 224 48 0 48 0 0 34.3zM256 352l48 0 0 48 112 0 11.3 0 10.1 5.1L496 434.3l0-34.3 48 0 48 0 0-224-144 0 0-48 144 0 48 0 0 48 0 224 0 48-48 0-48 0 0 10.3 0 37.7 0 16-48-24-80-40-112 0-48 0 0-48 0-48zM146.7 109c0-21.4 17.3-38.7 38.7-38.7l40.3 0c24.2 0 43.7 19.6 43.7 43.7c0 15.7-8.4 30.1-22 37.9L224 165.4l0 5.9 0 16-32 0 0-16 0-15.2 0-9.3 8-4.6 31.4-18c3.6-2.1 5.9-6 5.9-10.2c0-6.5-5.3-11.7-11.7-11.7l-40.3 0c-3.7 0-6.7 3-6.7 6.7l0 4.6-32 0 0-4.6zM191 216.7l34 0 0 34-34 0 0-34z"/></svg>

<svg xmlns="http://www.w3.org/2000/svg" viewBox="0 0 640 512"><!--! Font Awesome Pro 6.4.2 by @fontawesome - https://fontawesome.com License - https://fontawesome.com/license (Commercial License) Copyright 2023 Fonticons, Inc. --><path d="M144 360L96 384V368 330.3 320H48 0V272 48 0H48 368h48V48 272v48H368 224l-80 40zm0-53.7l58.5-29.3 10.1-5.1H224 368V48H48V272H96h48v34.3zM256 352h48v48H416h11.3l10.1 5.1L496 434.3V400h48 48V176H448V128H592h48v48V400v48H592 544v10.3V496v16l-48-24-80-40H304 256V400 352zM146.7 109c0-21.4 17.3-38.7 38.7-38.7h40.3c24.2 0 43.7 19.6 43.7 43.7c0 15.7-8.4 30.1-22 37.9L224 165.4v5.9 16H192v-16V156.1v-9.3l8-4.6 31.4-18c3.6-2.1 5.9-6 5.9-10.2c0-6.5-5.3-11.7-11.7-11.7H185.3c-3.7 0-6.7 3-6.7 6.7l0 4.6-32 0 0-4.6zM191 216.7h34v34H191v-34z"/></svg>
